X:1
T:Title
L:1/8
Q:1/4=110
M:6/4
K:G
V:1 treble nm="Church Organ, Staff"
V:1
 D2 B4 B2 B A3 | G2 E4 G2 D4 | D2 G4 B2 B3 A | G2 F2 A2- A3/2 z/ z2 z2 | D2 B4 d2 c B3 | %5
w: By~Rev.~George~P.~Grantham * * * *|||||
 A2 G4 E2 D4 | D2 G3 F G2 B4 | A2 A2 G2- G3/2 z/ z2 z2 | AA- A2- A/ z/ E- E/ z/ E- E2- E/ z/ G- | %9
w: ||||
 GG- G2- G/ z/ F- F/ z/ F- F2- F/ z/ A- | AB A3 G- G/ z/ F G3 E- | ED- D4- D/ z/ z z2 z D- | %12
w: |||
 DG- G2- G/ z/ d- d/ z/ d c3 B- | BA- A2- A/ z/ E- E/ z/ F- F2- F/ z/ G- | %14
w: ||
 G G3 FG- G/ z/ B- B2- B/ z/ A- | AG- G4- G/ z/ z z2 z F- | %16
w: ||
 FA- A2- A/ z/ A- A/ z/ A- A2- A/ z/ B- | BA- A2- A/ z/ A GF- F2- F/ z/ B- | %18
w: ||
 BB A3 G- G/ z/ F G3 E- | ED- D4- D/ z/ z z2 z D- | DB- B2- B/ z/ d- d/ z/ f c3 B- | %21
w: |||
 BA- A2- A/ z/ E- E/ z/ F- F2- F/ z/ G- | G G3 FG- G/ z/ B- B2- B/ z/ A- | AG- G4- G/ z/ z z2 z2 |] %24
w: |||

